build/svg/sc/res/xml_element_repeat.svg

<?xml version="1.0" encoding="UTF-8" standalone="no"?>
<svg
   xmlns:dc="http://purl.org/dc/elements/1.1/"
   xmlns:cc="http://creativecommons.org/ns#"
   xmlns:rdf="http://www.w3.org/1999/02/22-rdf-syntax-ns#"
   xmlns:svg="http://www.w3.org/2000/svg"
   xmlns="http://www.w3.org/2000/svg"
   xmlns:sodipodi="http://sodipodi.sourceforge.net/DTD/sodipodi-0.dtd"
   xmlns:inkscape="http://www.inkscape.org/namespaces/inkscape"
   viewBox="0 0 16 11"
   version="1.1"
   id="svg4"
   sodipodi:docname="xml_element_repeat.svg"
   inkscape:export-filename="/home/jupiter007/Libreoffice yaru theme fullcolor/build/sc/res/xml_element_repeat.png"
   inkscape:export-xdpi="96"
   inkscape:export-ydpi="96"
   inkscape:version="0.92.5 (2060ec1f9f, 2020-04-08)">
  <metadata
     id="metadata10">
    <rdf:RDF>
      <cc:Work
         rdf:about="">
        <dc:format>image/svg+xml</dc:format>
        <dc:type
           rdf:resource="http://purl.org/dc/dcmitype/StillImage" />
        <dc:title></dc:title>
      </cc:Work>
    </rdf:RDF>
  </metadata>
  <defs
     id="defs8" />
  <sodipodi:namedview
     pagecolor="#ffffff"
     bordercolor="#666666"
     borderopacity="1"
     objecttolerance="10"
     gridtolerance="10"
     guidetolerance="10"
     inkscape:pageopacity="0"
     inkscape:pageshadow="2"
     inkscape:window-width="1920"
     inkscape:window-height="1011"
     id="namedview6"
     showgrid="false"
     inkscape:zoom="21.454545"
     inkscape:cx="2.8029661"
     inkscape:cy="9.2288136"
     inkscape:window-x="0"
     inkscape:window-y="32"
     inkscape:window-maximized="1"
     inkscape:current-layer="svg4" />
  <path
     d="m7.6875 1-2.34375 8.75.96875.25 2.34375-8.75zm2 0-2.34375 8.75.96875.25 2.34375-8.75zm-5.40625 1-2.96875 3.15625-.3125.34375.3125.34375 2.96875 3.15625.6875-.6875-2.59375-2.8125 2.625-2.8125zm7.4375 0-.71875.6875 2.625 2.8125-2.59375 2.8125.6875.6875 2.96875-3.15625.3125-.34375-.3125-.34375z"
     fill="#f27935"
     id="path819"
     style="fill:#000000;stroke:#000000;opacity:0.6;stroke-width:2;stroke-miterlimit:4;stroke-dasharray:none;stroke-linejoin:round" />
  <path
     style="fill:#ffffff"
     id="path817"
     fill="#f27935"
     d="m7.6875 1-2.34375 8.75.96875.25 2.34375-8.75zm2 0-2.34375 8.75.96875.25 2.34375-8.75zm-5.40625 1-2.96875 3.15625-.3125.34375.3125.34375 2.96875 3.15625.6875-.6875-2.59375-2.8125 2.625-2.8125zm7.4375 0-.71875.6875 2.625 2.8125-2.59375 2.8125.6875.6875 2.96875-3.15625.3125-.34375-.3125-.34375z" />
  <path
     d="m7.6875 1-2.34375 8.75.96875.25 2.34375-8.75zm2 0-2.34375 8.75.96875.25 2.34375-8.75zm-5.40625 1-2.96875 3.15625-.3125.34375.3125.34375 2.96875 3.15625.6875-.6875-2.59375-2.8125 2.625-2.8125zm7.4375 0-.71875.6875 2.625 2.8125-2.59375 2.8125.6875.6875 2.96875-3.15625.3125-.34375-.3125-.34375z"
     fill="#f27935"
     id="path2"
     style="fill:#ffffff" />
</svg>

<svg xmlns="http://www.w3.org/2000/svg" viewBox="0 0 16 11"><path d="M7.688 1L5.344 9.75l.968.25 2.344-8.75zm2 0L7.344 9.75l.968.25 2.344-8.75zM4.28 2L1.313 5.156 1 5.5l.313.344L4.28 9l.688-.688L2.375 5.5 5 2.687zm7.438 0L11 2.688 13.625 5.5l-2.594 2.813.688.687 2.969-3.156L15 5.5l-.313-.344z" stroke="#000" opacity=".6" stroke-width="2" stroke-linejoin="round"/><path fill="#fff" d="M7.688 1L5.344 9.75l.968.25 2.344-8.75zm2 0L7.344 9.75l.968.25 2.344-8.75zM4.28 2L1.313 5.156 1 5.5l.313.344L4.28 9l.688-.688L2.375 5.5 5 2.687zm7.438 0L11 2.688 13.625 5.5l-2.594 2.813.688.687 2.969-3.156L15 5.5l-.313-.344z"/><path d="M7.688 1L5.344 9.75l.968.25 2.344-8.75zm2 0L7.344 9.75l.968.25 2.344-8.75zM4.28 2L1.313 5.156 1 5.5l.313.344L4.28 9l.688-.688L2.375 5.5 5 2.687zm7.438 0L11 2.688 13.625 5.5l-2.594 2.813.688.687 2.969-3.156L15 5.5l-.313-.344z" fill="#fff"/></svg>
